!!!!SEGMENT: pl-kk--kk-i-389--005-001_anonim--missa-no-5-rorate.krn
!!!cenid: 17xx:2484
!!!COM: Anonim
!!!COM-rismID: pe30004985
!!!CDT:
!!!CNT:
!!!OPR: [Missa] No. 5.
!!!OTL: Rorate
!!!OMV: 001
!!!PDT:
!!!AGN: Sacred; Mass
!!!YEC: Copyright 2022 Narodowy Instytut Fryderyka Chopina (https://polishscores.org)
!!!YEM: License CC-BY-4.0 (https://creativecommons.org/licenses/by/4.0)
!!!SMS-siglum: PL-Kk
!!!SMS-shelfmark: Kk.I.389
!!!SMS-variant:
!!!SMS-altvar:
!!!SMS-shelfwork: 005-001 M
!!!NIFC-rismSourceID: 1001146182
!!!NIFC-rismChildID: 1001146646
!!!NIFC-islandoraID: pl-kk:6976
!!!URL-pdf-islandora: https://repozytorium.nifc.pl/islandora/object/pl-kk%3A6976/datastream/PDF/view
!!!URL-scan: https://polish.musicsources.pl/pl/lokalizacje/galeria/rekopisy/5999/1 @EN{Scan on Polish Music Sources Website} @PL{Skany w portalu Dziedzictwo Muzyki Polskiej w otwartym dostępie}
!!!IIIF:
!!!ONB-nifc: UWAGA: S – skan 9-10, A – 28-29 , T – 47-48 , B – 66-67 . Części Mszy: Rorate, Kyrie, Gloria, Graduale, Sanctus, Benedictus, Agnus.
!!!AIN: 1 alto 1 bass 1 soprn 1 tenor
!!!key: C
**kern	**text	**kern	**text	**kern	**text	**kern	**text
*part4	*part4	*part3	*part3	*part2	*part2	*part1	*part1
*staff4	*staff4	*staff3	*staff3	*staff2	*staff2	*staff1	*staff1
*I"Basso.	*	*I"Tenore.	*	*I"Alto.	*	*I"Soprano.	*
*I'[B]	*	*I'[T]	*	*I'[A]	*	*I'[S]	*
*ICvox	*	*ICvox	*	*ICvox	*	*ICvox	*
*Ibass	*	*Itenor	*	*Ialto	*	*Isoprn	*
*clefF4	*	*clefC4	*	*clefC3	*	*clefC1	*
*k[]	*	*k[]	*	*k[]	*	*k[]	*
*C:	*	*C:	*	*C:	*	*C:	*
*M3/2	*	*M3/2	*	*M3/2	*	*M3/2	*
!!LO:TX:t=P:problem:all\right	!	!	!	!	!	!	!
*2\right	*	*2\right	*	*2\right	*	*2\right	*
2C\	Ro-	2c\	Ro-	2e\	Ro-	2g\	Ro-
=1	=1	=1	=1	=1	=1	=1	=1
2G\	-ra-	2B\	-ra-	2d\	-ra-	2g\	-ra-
2G\	-te	2B\	-te	2d\	-te	2g\	-te
2G\	Ro-	2B\	Ro-	2d\	Ro-	2g\	Ro-
=2	=2	=2	=2	=2	=2	=2	=2
2C/	-ra-	2c\	-ra-	2e\	-ra-	2g\	-ra-
2C/	-te	2c\	-te	2e\	-te	2g\	-te
2GG/	Ro-	2d\	Ro-	2g\	Ro-	2b\	Ro-
=3	=3	=3	=3	=3	=3	=3	=3
1D	-ra-	1d	-ra-	1f#X	-ra-	1a	-ra-
2D\	-te	2d\	-te	2f#\	-te,	2a\	-te
=4	=4	=4	=4	=4	=4	=4	=4
2D\	Ro-	2d\	Ro-	2f#X\	Ro-	2a\	Ro-
2G\	-ra-	2d\	-ra-	2g\	-ra-	2b\	-ra-
2F#X\	-te	2d\	-te	2d\	-te	2a\	-te
=5	=5	=5	=5	=5	=5	=5	=5
1G	ce-	1d	ce-	1g	ce-	1b	ce-
2c\	-li	2e\	-li	2g\	-li	2cc\	-li
!	!	!LO:LB:g=original	!	!	!	!	!
=6	=6	=6	=6	=6	=6	=6	=6
2B\	de-	2d\	de-	1g	de-	2g\	de-
2.A\	.	2.c\	.	.	.	2.a\	.
.	.	.	.	2f#X\	-su-	.	.
4A\	-su-	4c\	-su-	.	.	4a\	-su-
!LO:LB:g=original	!	!	!	!	!	!LO:LB:g=original	!
=7	=7	=7	=7	=7	=7	=7	=7
1.G	-per,	1.B	-per,	1.g	-per,	1.b	-per,
!	!	!	!	!LO:LB:g=original	!	!	!
=8	=8	=8	=8	=8	=8	=8	=8
2c\	et	2e\	et	2g\	et	2cc\	et
2c\	nu-	2e\	nu-	2g\	nu-	2cc\	nu-
2B\	-bes	2d\	-bes	2g\	-bes	2dd\	-bes
=9	=9	=9	=9	=9	=9	=9	=9
1c	plu-	1e	plu-	1g	plu-	1cc	plu-
2G\	-ant	2d\	-ant	2g\	-ant	2b\	-ant
=10	=10	=10	=10	=10	=10	=10	=10
2.A\	plu-	2.c\	plu-	1fn	plu-	1a	plu-
4B\	.	4d\	.	.	.	.	.
2c\	-ant	2e\	-ant	2e\	-ant	2g\	-ant
=11	=11	=11	=11	=11	=11	=11	=11
2F\	ju-	2c\	plu-	2f\	ju-	2a\	ju-
1G	.	2c\	-an	1d	.	1g	.
.	.	2B\	jus-	.	.	.	.
=12	=12	=12	=12	=12	=12	=12	=12
1C	-stum	1c	-tum	1e	-stum	1g	-stum,
2c\	a-	2G/	a-	2e\	a-	2cc\	a-
=13	=13	=13	=13	=13	=13	=13	=13
1G#X	-pe-	1G#X	-pe-	1e	-pe-	1b	-pe-
2G#\	-ri-	2G#/	-ri-	2e\	-ri-	2b\	-ri-
=14	=14	=14	=14	=14	=14	=14	=14
1A	-a-	1c	-a-	1e	-a-	1a	-a-
2E\	-tur	2e\	-tur	2e\	-tur	2b\	-tur
!	!	!LO:LB:g=original	!	!	!	!	!
=15	=15	=15	=15	=15	=15	=15	=15
2F\	ter-	2A\	ter-	2c\	ter-	2a\	ter-
2F\	-ra	2c\	-ra	2e\	-ra	2a\	-ra
2D\	et	2d\	et	2f\	et	2b\	et
!LO:LB:g=original	!	!	!	!	!	!LO:LB:g=original	!
=16	=16	=16	=16	=16	=16	=16	=16
2.E\	ger-	2.B\	ger-	2.e\	ger-	2.g#X\	ger-
4E\	-mi-	4B\	-mi-	4e\	-mi-	4g#\	-mi-
2E\	-net	2B\	-net	2e\	-net	2g#\	-net
!	!	!	!	!LO:LB:g=original	!	!	!
=17	=17	=17	=17	=17	=17	=17	=17
2.E\	ger-	2.c\	ger-	2.e\	ger-	2.a\	ger-
4E\	-mi-	4c\	-mi-	4e\	-mi-	4a\	-mi-
2E\	-net	2c\	-net	2e\	-net,	2e/	-net
=18	=18	=18	=18	=18	=18	=18	=18
2.A\	ger-	2.c\	ger-	2.e\	ger-	2.a\	ger-
4A\	-mi-	4c\	-mi-	4e\	-mi-	4a\	-mi-
2G\	-net	2c\	-net	2e\	-net,	2b\	-net
=19	=19	=19	=19	=19	=19	=19	=19
2.F\	ger-	2.A\	ger-	2.fn\	ger-	1.ryy	.
4E\	-mi-	4A\	-mi-	4f\	-mi-	.	.
2D\	-net	2d\	-net	2f\	-net	.	.
=20	=20	=20	=20	=20	=20	=20	=20
1E	sal-	1B	sal-	1e	sal-	1g#X	sal-
2A\	-va-	2c\	-va-	2e\	-va-	2a\	-va-
=21	=21	=21	=21	=21	=21	=21	=21
2D\	-to-	2d\	-to-	2f\	-to-	1a	-to-
1E	.	1B	-t-	1e	.	.	.
.	.	.	.	.	.	2g#X\	.
=22	=22	=22	=22	=22	=22	=22	=22
1.AA	-rem.	1.c#X	-rem.	1.e	-rem.	1.a	-rem.
==	==	==	==	==	==	==	==
*-	*-	*-	*-	*-	*-	*-	*-
!!!system-decoration: [(s1,s2,s3,s4)]
!!!ENC: Andrzej Gręziak
!!!END: 2023-11-07
!!!EED: Jan Barakat
!!!EEV: 2023-11-30
